assets/img/egypt/sky.svg

<svg xmlns="http://www.w3.org/2000/svg" viewBox="0 0 800 800"><defs><style>.cls-1{fill:#35999e}.cls-2{fill:#48a7b7}.cls-3{fill:#65bbce}.cls-4{fill:#77c6db}.cls-5{fill:#8acddd}</style></defs><title>Asset 1</title><g id="Layer_2" data-name="Layer 2"><g id="Background"><path class="cls-1" d="M0 0h800v800H0z"/><path class="cls-2" d="M400 84.19a605.18 605.18 0 0 1 400 150.27V44a808.55 808.55 0 0 0-90.28-44H90.28A808.55 808.55 0 0 0 0 44v190.46A605.18 605.18 0 0 1 400 84.19z"/><path class="cls-3" d="M0 234.46v348.28c24.59-199 194.3-353.14 400-353.14s375.41 154.09 400 353.14V234.46a607.51 607.51 0 0 0-800 0z"/><path class="cls-4" d="M33.21 800h733.58A400.3 400.3 0 0 0 800 682.61v-99.87c-24.59-199-194.3-353.14-400-353.14S24.59 383.69 0 582.74v99.88A400.3 400.3 0 0 0 33.21 800z"/><path class="cls-5" d="M149.77 746.56h500.46a273.09 273.09 0 0 0 22.66-80.08v-68.14C656.11 462.54 540.33 357.42 400 357.42S143.89 462.54 127.11 598.34v68.14a273.09 273.09 0 0 0 22.66 80.08z"/></g></g></svg>

<svg xmlns="http://www.w3.org/2000/svg" viewBox="0 0 800 800"><defs><style>.cls-1{fill:#35999e;}.cls-2{fill:#48a7b7;}.cls-3{fill:#65bbce;}.cls-4{fill:#77c6db;}.cls-5{fill:#8acddd;}</style></defs><title>Asset 1</title><g id="Layer_2" data-name="Layer 2"><g id="Background"><rect class="cls-1" width="800" height="800"/><path class="cls-2" d="M400,84.19A605.18,605.18,0,0,1,800,234.46V44A808.55,808.55,0,0,0,709.72,0H90.28A808.55,808.55,0,0,0,0,44V234.46A605.18,605.18,0,0,1,400,84.19Z"/><path class="cls-3" d="M0,234.46V582.74c24.59-199,194.3-353.14,400-353.14S775.41,383.69,800,582.74V234.46a607.51,607.51,0,0,0-800,0Z"/><path class="cls-4" d="M33.21,800H766.79A400.3,400.3,0,0,0,800,682.61V582.74c-24.59-199-194.3-353.14-400-353.14S24.59,383.69,0,582.74v99.88A400.3,400.3,0,0,0,33.21,800Z"/><path class="cls-5" d="M149.77,746.56H650.23a273.09,273.09,0,0,0,22.66-80.08V598.34C656.11,462.54,540.33,357.42,400,357.42S143.89,462.54,127.11,598.34v68.14A273.09,273.09,0,0,0,149.77,746.56Z"/></g></g></svg>
